src/22/panel/battery-low-charging.svg

<svg xmlns="http://www.w3.org/2000/svg" width="22" height="22" version="1.1">
 <defs>
  <style id="current-color-scheme" type="text/css">
   .ColorScheme-Text { color:#d3dae3; } .ColorScheme-Highlight { color:#4285f4; }
  </style>
 </defs>
 <g style="fill:currentColor" class="ColorScheme-Text">
  <path d="M8 8v3.094L9.844 8zm4 0v2h2V8zm2 4.906L12.156 16H14zM8 14v2h2v-2z" opacity=".35"/>
  <path d="M14 12.906L12.156 16H14v-3.094zM8 14v2h2v-2H8z"/>
  <path d="M9 4v1h4V4zM6.844 6C6.563 6.047 6 6.25 6 7v10c0 1 1 1 1 1h8c1 0 1-1 1-1V7s0-1-1-1H7s-.062-.016-.156 0zM7 7h8v10H7z"/>
  <path d="M11 8v3h3l-3 5v-3H8z"/>
  <path d="M6.844 6C6.563 6.047 6 6.25 6 7v10c0 1 1 1 1 1h8c1 0 1-1 1-1V7s0-1-1-1H7c-.052 0-.062-.016-.156 0zM7 7h8v10H7z"/>
 </g>
</svg>

<svg xmlns="http://www.w3.org/2000/svg" width="22" height="22" version="1.1">
 <defs>
  <style id="current-color-scheme" type="text/css">
   .ColorScheme-Text { color:#dfdfdf; } .ColorScheme-Highlight { color:#4285f4; }
  </style>
 </defs>
 <path style="opacity:0.3;fill:currentColor" class="ColorScheme-Text" d="M 9,4 V 5 H 6 V 17 C 6,17.55 6.446,18 7,18 H 15 C 15.554,18 16,17.55 16,17 V 5 H 13 V 4 Z M 11,8 V 11 H 14 L 11,16 V 13 H 8 Z"/>
 <path style="fill:currentColor" class="ColorScheme-Text" d="M 6 13 L 6 17 C 6 17.55 6.446 18 7 18 L 15 18 C 15.554 18 16 17.55 16 17 L 16 13 L 12.801 13 L 11 16 L 11 13 L 8 13 L 6 13 z"/>
</svg>
